X: 22131
T: Kuortaneen Polkka
R: polka
M: 2/4
K: Bminor
|:FF B/F/B/d/|ff e/f/e/d/|cf/g/ f/g/f/e/|d/e/d/c/ Bd/B/|
FF B/F/B/d/|ff e/f/e/d/|cf/g/ f/g/f/e/|dc B2:|
|:ff df|bf bf|ee/e/ ce|ae a/g/f/e/|
dd Bd|ff e/f/e/d/|cf/g/ f/g/f/e/|dc B2:|
|:d/f/B B/F/B/d/|fd/f/ ed|c/e/A A/E/A/c/|ec/e/ dc|
d/f/B B/F/B/d/|fd/f/ ed|c/e/A c/e/d/c/|1 Bd/f/ bb/f/:|2 B2 BG||

